!!!OTL: 527b. Baeumlein steigen.
!!!ARE: Europa, Mitteleuropa, Deutschland, Hessen, Darmstadt; Schwalbach
!!!SCT: E0527A
!!!TXL: @@DE
!!!YEM: Copyright 1995, estate of Helmut Schaffrath.
**kern	**text
*ICvox	*
*M2/4	*
*k[]	*
*C:	*
!LO:TX:a:t=Mäßig schnell.	!
!LO:TX:a:t=Gegend von Darmſtadt 1840 und Schwalbach (Kr. Wetʒlar) 1890.	!
{8c	Jch
=1	=1
8.f	wollt
16g	ein
8a	Bäum-
8b	-lein
=2	=2
8cc	ſtei-
8cc	.
8cc}	-gen,
{8cc	das
=3	=3
8dd	nicht
8ee	ʒu
8ff	ſtei-
8dd	-gen
=4	=4
4cc	war;
8r}	.
{8cc	da
=5	=5
8cc	beug-
8b	-ten
8b	ſich
8b	die
=6	=6
8b/	Ae-
8a	-ſti-
8a}	-cher
{8a	und
=7	=7
8g	ich
8g	fiel
8a	in
8g	das
=8	=8
8fL	Gras.
8a	.
8ccJ}	.
{8cc	da
=9	=9
8cc	beug-
8b	-ten
8b	ſich
8b	die
=10	=10
8b/	Ae-
8a	-ſti-
8a}	-cher
{8a	und
=11	=11
8g	ich
8g	fiel
8a	in
8g	das
=12	=12
4f	Gras.
8r}	.
==	==
!!!AGN: Liebes - Lied
!!!ONB: ESAC (Essen Associative Code) Database: ERK1
!!!AMT: simple duple
!!!AIN: vox
!!!EED: Helmut Schaffrath
!!!EEV: 1.0
!!!GTL: Liebeslieder [Neuere (aus dem 18. bis 19. Jahrh.) - Liebeslust]
!!!URL-scan: https://rosdok.uni-rostock.de/mcrviewer/recordIdentifier/rosdok_ppn745177662/iview2/phys_0354.iview2?x=-495.639162561577&y=1408.1724908901379&scale=0.46294184720638526&rotation=0&layout=singlePageLayout
!!!ENC: Anna Maria Matuszewska
!!!EEV: 2024/10/12
*-	*-
